X:1
T:The Courting Case
M:6/8
L:1/8
K:D
 z4 z F| A2 A d2 d|A-B A F2 F| A2 A d2 B| A3- A2 z| A2 A ddd| A2 B F2 E|\
 DDFA-B A| F3 F2 E| DDFA-F E| D3- D2 z|
